X:1
T:Waltz in B Minor
C:Fryderyk Franciszek Chopin
%%measurenb 0
%%score { ( 1 2 ) | ( 3 4 ) }
L:1/4
M:3/4
K:D
V:1 treble nm="Piano" snm="Pno."
L:1/8
V:2 treble 
V:3 bass 
V:4 bass 
V:1
L:1/8
 (f2- |: fgfcdB | ^A4) (f2- | fgfced | B4) (f2- | fg^efbd' |  .d'2) ^e2 d'2- | .d'2 =e2 c'2- | (c'b^agfc) | (dgfcdB | ^A4) (f2- |  fgfced | B4) (f2- | ff'c'd'^ab) | (=agBc"_dim."de) | (gfBdcF |1  B)(^EF^ABc) :: B3 (FB_B) |"^con anima" (_B3 Ace) |  (g3 fcd) | (f3 eBc) | (e3 dcB) | (B3 Ace) |  (g3 fcd) | (f3 eBc) | ^A3 cGc | (F3 ^Ace) | (g3 fcd) |  (f3 eBc) | (e3 dcB) | (B3 Ace) |  (g3 fcd) | f3 e(f'e' | d'c'=c'b^a=a | ^g=gfcdB |  ^A2) z2 (=a2 | ^g=gfced | B2) z2 (a2 | ^g=g^efbd' | d'2) ^e2 d'2- | d'2 =e2 (c'2 |  =c'b^a=a^g=g | f=fedcB | ^A4) (g2 | fgfced | B4) (f2 | f'c'd'^abf) |  (=agBceg) | gfBdcF :| B2 z2 F2 ||[K:B]"_dolce" ((dedcde) | (g4 f2)) |  ((dedcde) | (g4 f2)) | (f2 d'>)d' d'2 | (c'2 e>)e e2 | (d2 b>)b b2 | (a2 c>)c e2 | ((dedcde) |  (g4 f2)) | ((dedcde) | (g4 f2)) | (d2 b>)b b2 | (a2 c>)c c2 | (B2 g>)g (g2 |  f2 A>)A e2 | (([Bd][ce][Bd][Fc][Bd][ce]) | ([Ag]4 [Af]2)) | (([Bd][ce][Bd][Fc][Bd][ce]) |  ([Ag]4 [Af]2)) | ([df]2 [fd']>)[fd'] [fd']2 | ([ec']2 [ce]>)[ce] [ce]2 |  ([Bd]2 [db]>)[db] [db]2 | ([ca]2 [Ac]>)[Ac] [ce]2 |"_cresc." (([B=d][ce][Bd][Fc][Bd][ce]) |  ([A=g]4 [Af]2)) | (([B=d][ce][Bd][Fc][Bd][ce]) | ([A=g]4 [Af]2)) | "_dim." ([=df]2 [Fe])z/([Fe]/ [Bd]2) | ([B=d]2 [^Ec])z/([E-c]/ [EB]2) |  A2 c4- | [Fc]2 F2 f2 ||[K:D] fgfcdB | ^A4 (f2- | fgfced | B4) (f2- |  fg^efbd' | .d'2) ^e2 d'2- | .d'2 =e2 c'2- | (c'b^agfc) | (dgfcdB |  ^A4) (f2- | fgfced | B4) (f2- | ff'c'd'^ab) | (=agBcde) | (gfBdcF |  B3) (FB_B) |"^con anima" (_B3 Ace) | (g3 fcd) |  (f3 eBc) | (e3 dcB) | (B3 Ace) | (g3 fcd) | (f3 eBc) |  ^A3 cGc | (F3 ^Ace) | (g3 fcd) | (f3 eBc) |  (e3 dcB) | (B3 Ace) | (g3 fcd) |  f3 e(f'e' | d'c'=c'b^a=a | ^g=gfcdB | ^A2) z2 (=a2 | ^g=gfced |  B2) z2 (a2 | ^g=g^efbd' | d'2) ^e2 d'2- | d'2 =e2 (c'2 | =c'b^a=a^g=g |  f=fedcB | ^A4) (g2 | fgfced | B4) (f2 | f'c'd'^abf) | (=agBceg) |  (gfBdcF | B2) z2 z2 |] 
V:2
L:1/4
 x |: x3 | x3 | x3 | x3 | x3 | x3 | x3 | x3 | x3 | x3 | x3 | x3 | x3 | x3 | x3 |1 x3 :: x3 | x3 |  x3 | x3 | x3 | x3 | x3 | x3 | x3 | x3 | x3 | x3 | x3 | x3 | x3 | x3 | x3 | x3 | x3 | x3 | x3 |  x3 | x3 | x3 | x3 | x3 | x3 | x3 | x3 | x3 | x3 | x3 :| x3 ||[K:B] x3 | x3 | x3 | x3 | x3 |  x3 | x3 | x3 | x3 | x3 | x3 | x3 | x3 | x3 | x3 | x3 | x3 | x3 | x3 | x3 | x3 | x3 | x3 | x3 |  x3 | x3 | x3 | x3 | x3 | x3 | F3- | x3 ||[K:D] x3 | x3 | x3 | x3 | x3 | x3 | x3 | x3 | x3 | x3 |  x3 | x3 | x3 | x3 | x3 | x3 | x3 | x3 | x3 | x3 | x3 | x3 | x3 | x3 | x3 | x3 | x3 | x3 | x3 |  x3 | x3 | x3 | x3 | x3 | x3 | x3 | x3 | x3 | x3 | x3 | x3 | x3 | x3 | x3 | x3 | x3 | x3 | x3 |] 
V:3
L:1/4
 z |: .B,, [F,B,D] [F,B,D] | .C, [F,^A,E] [F,A,E] |  .^A,, [F,CE] [F,CE] | .B,, [F,B,D] [F,B,D] |  .B,, [F,B,D] [F,B,D] | .B,, [^G,B,D] [G,B,D] |  .B,, [=G,B,E] [G,B,E] | .B,, [F,CE] [F,^A,E] |  .B,, [F,B,D] [F,B,D] | .C, [F,^A,E] [F,A,E] |  .F,, [F,^A,E] [F,A,E] | .B,, [F,B,D] [F,B,D] |  (D, [F,B,D]) [F,B,D] | .E, .[B,CG] z | F,3 |1  .[B,D] .B,, z :: .B,, .[F,D] D, |  .C, [G,A,E] [G,A,E] | D, [F,A,D] [F,A,D] |  .A,, [A,CG] [A,EG] | .D, [A,DF] [A,DF] |  .C, [A,EG] [A,EG] | .D, [A,DF] [A,DF] |  .G,, [G,B,E] [G,B,E] | .F,, [F,CE] [F,CE] |  .F,, [F,CE] [F,^A,E] | .B,, [F,B,D] [F,B,D] |  .A,, [F,A,E] [F,CE] | .D, [A,DF] [A,DF] |  .C, [A,EG] [A,EG] | .D, [A,DF] [A,DF] |  .G,, .[G,B,E] z | .F,, .[F,E] .^A,, |  .B,, [F,D] [F,D] | .C, [F,CE] [F,CE] |  .^A,, [F,CE] [F,CE] | .B,, [F,B,D] [F,B,D] |  .B,, [F,B,D] [F,B,D] | .B,, [^G,B,D] [G,B,D] |  .B,, [=G,B,E] [G,B,E] | .B,, [F,^A,E] [F,A,E] |  .B,, [F,B,D] [F,B,D] | .C, [F,^A,E] [F,A,E] |  .^A,, [F,CE] [F,CE] | .B,, [F,B,D] [F,B,D] |  (D, [F,B,D]) [F,B,D] | (E, [G,C]) z | F,3 :|  .[B,D] .B,, z ||[K:B] .B,, [F,B,D] [F,B,D] |  .A,, [F,CE] [F,CE] | .B,, [F,B,D] [F,B,D] |  .A,, [F,CE] [F,CE] | .B,, [F,B,D] [F,B,D] |  .F,, [F,A,E] [F,A,E] | .B,, [F,B,D] [F,B,D] |  .F,, [F,A,E] [F,A,E] | .B,, [F,B,D] [F,B,D] |  .A,, [F,CE] [F,CE] | .B,, [F,B,D] [F,B,D] |  .A,, [F,CE] [F,CE] | .B,, [F,B,D] [G,B,D] |  .C, [A,CF] [A,CF] | .B,, [G,C^E] [G,CE] |  .F,, [F,C=E] [F,CE] | .B,, [F,B,D] [F,B,D] |  .A,, [F,CE] [F,CE] | .B,, [F,B,D] [F,B,D] |  .A,, [F,CE] [F,CE] | .B,, [F,B,D] [F,B,D] |  .F,, [F,A,E] [F,A,E] | .B,, [F,B,D] [F,B,D] |  .F,, [F,CE] [F,CE] | .B,, [F,B,=D] [F,B,D] |  .A,, [F,CE] [F,CE] | .B,, [F,B,=D] [F,B,D] |  .A,, [F,CE] [F,CE] | .B,, [F,B,=D] B,, |  .=G,, [C,^E,B,] [C,E,B,] | .F,, [C,F,A,] [C,F,A,] |  .F,, [F,A,E] [F,A,E] ||[K:D]"_Staff" .B,, [F,B,D] [F,B,D] |  .C, [F,^A,E] [F,A,E] | .^A,, [F,CE] [F,CE] |  .B,, [F,B,D] [F,B,D] | .B,, [F,B,D] [F,B,D] |  .B,, [^G,B,D] [G,B,D] | .B,, [=G,B,E] [G,B,E] |  .B,, [F,CE] [F,^A,E] | .B,, [F,B,D] [F,B,D] |  .C, [F,^A,E] [F,A,E] | .F,, [F,^A,E] [F,A,E] |  .B,, [F,B,D] [F,B,D] | (D, [F,B,D]) [F,B,D] |  (E, .[B,CG]) z | F,3 | .B,, .[F,D] D, |  .C, [G,A,E] [G,A,E] | D, [F,A,D] [F,A,D] |  .A,, [A,CG] [A,EG] | .D, [A,DF] [A,DF] |  .C, [A,EG] [A,EG] | .D, [A,DF] [A,DF] |  .G,, [G,B,E] [G,B,E] | .F,, [F,CE] [F,CE] |  .F,, [F,CE] [F,^A,E] | .B,, [F,B,D] [F,B,D] |  .A,, [F,A,E] [F,CE] | .D, [A,DF] [A,DF] |  .C, [A,EG] [A,EG] | .D, [A,DF] [A,DF] |  .G,, .[G,B,E] z | .F,, .[F,E] .^A,, |  .B,, [F,D] [F,D] | .C, [F,CE] [F,CE] |  .^A,, [F,CE] [F,CE] | .B,, [F,B,D] [F,B,D] |  .B,, [F,B,D] [F,B,D] | .B,, [^G,B,D] [G,B,D] |  .B,, [=G,B,E] [G,B,E] | .B,, [F,^A,E] [F,A,E] |  .B,, [F,B,D] [F,B,D] | .C, [F,^A,E] [F,A,E] |  .^A,, [F,CE] [F,CE] | .B,, [F,B,D] [F,B,D] |  (D, [F,B,D]) [F,B,D] | (E, [G,C]) z | F,3 |  .[B,D] .B,, z |] 
V:4
L:1/4
 x |: x3 | x3 | x3 | x3 | x3 | x3 | x3 | x3 | x3 | x3 | x3 | x3 | x3 | x3 | F, [B,D] [^A,E] |1  x3 :: x3 | x3 | x3 | x3 | x3 | x3 | x3 | x3 | x3 | x3 | x3 | x3 | x3 | x3 | x3 | x3 | x3 | x3 |  x3 | x3 | x3 | x3 | x3 | x3 | x3 | x3 | x3 | x3 | x3 | x3 | x3 | F, ([B,D] [^A,E]) :| x3 || [K:B] x3 | x3 | x3 | x3 | x3 | x3 | x3 | x3 | x3 | x3 | x3 | x3 | x3 | x3 | x3 | x3 | x3 | x3 |  x3 | x3 | x3 | x3 | x3 | x3 | x3 | x3 | x3 | x3 | x3 | x3 | x3 | x3 ||[K:D] x3 | x3 | x3 | x3 |  x3 | x3 | x3 | x3 | x3 | x3 | x3 | x3 | x3 | x3 | F, ([B,D] [^A,E]) | x3 | x3 | x3 | x3 | x3 |  x3 | x3 | x3 | x3 | x3 | x3 | x3 | x3 | x3 | x3 | x3 | x3 | x3 | x3 | x3 | x3 | x3 | x3 | x3 |  x3 | x3 | x3 | x3 | x3 | x3 | x3 | F, [B,D] [^A,E] | x3 |] 